src/assets/images/toolbox/netlify.svg

<svg
  width="32"
  height="32"
  viewBox="0 0 32 32"
  fill="transparent"
  xmlns="http://www.w3.org/2000/svg">
  <path
    fill="url(#paint0_radial_11_316)"
    d="M23.1915 11.1049L23.1798 11.0999C23.1726 11.0977 23.166 11.094 23.1605 11.089C23.1509 11.0787 23.1438 11.0664 23.1398 11.0529C23.1357 11.0394 23.1348 11.0252 23.1371 11.0114L23.783 7.06725L26.8116 10.0934L23.6619 11.432C23.6531 11.4355 23.6438 11.4372 23.6344 11.437H23.6217C23.6156 11.433 23.61 11.4282 23.605 11.4227C23.4878 11.2924 23.3476 11.1847 23.1915 11.1049ZM27.5845 10.8645L30.8228 14.0992C31.4953 14.7719 31.8321 15.1074 31.9549 15.4964C31.9733 15.5539 31.9883 15.6115 32 15.6707L24.2609 12.3967C24.2567 12.395 24.2526 12.3934 24.2484 12.3917C24.2174 12.3792 24.1815 12.365 24.1815 12.3334C24.1815 12.3016 24.2182 12.2866 24.2491 12.2741L24.2591 12.2699L27.5845 10.8645ZM31.868 16.709C31.7009 17.0227 31.375 17.3482 30.8236 17.8999L27.1725 21.5461L22.4504 20.5639L22.4254 20.5589C22.3835 20.5521 22.3393 20.5446 22.3393 20.5071C22.3213 20.3125 22.2634 20.1236 22.1693 19.9523C22.0751 19.781 21.9467 19.631 21.792 19.5115C21.7727 19.4922 21.7779 19.4622 21.7836 19.4346C21.7836 19.4305 21.7836 19.4264 21.7854 19.423L22.6735 13.9766L22.6768 13.9582C22.6818 13.9165 22.6893 13.8681 22.7269 13.8681C22.9172 13.8445 23.1009 13.7833 23.2673 13.688C23.4337 13.5927 23.5794 13.4653 23.6961 13.3131C23.7036 13.3047 23.7086 13.2956 23.7186 13.2906C23.7454 13.2781 23.7771 13.2906 23.8048 13.3022L31.868 16.709ZM26.333 22.3849L20.3291 28.3821L21.3566 22.0727L21.3584 22.0644C21.3592 22.0562 21.3608 22.0481 21.3634 22.0402C21.3717 22.0202 21.3934 22.0119 21.4144 22.0035L21.4244 21.9992C21.6494 21.9034 21.8484 21.7555 22.0051 21.5679C22.0251 21.5445 22.0494 21.5219 22.0802 21.5177C22.0882 21.5165 22.0965 21.5165 22.1045 21.5177L26.332 22.3857L26.333 22.3849ZM19.0583 29.6515L18.3815 30.3275L10.8997 19.5265C10.897 19.5225 10.8942 19.5186 10.8914 19.5147C10.8797 19.4989 10.8671 19.4831 10.8698 19.4647C10.8705 19.4514 10.8789 19.4397 10.8881 19.4297L10.8964 19.4189C10.9189 19.3854 10.9382 19.352 10.9591 19.3161L10.9757 19.287L10.9782 19.2845C10.99 19.2645 11.0007 19.2452 11.0209 19.2344C11.0384 19.226 11.0627 19.2294 11.0819 19.2335L19.3708 20.941C19.394 20.9447 19.4157 20.9541 19.4342 20.9685C19.4451 20.9795 19.4476 20.9911 19.4501 21.0045C19.508 21.2231 19.6157 21.4253 19.7646 21.5955C19.9136 21.7656 20.0999 21.8989 20.309 21.9851C20.3324 21.9967 20.3224 22.0226 20.3115 22.0501C20.3061 22.0622 20.3019 22.0748 20.299 22.0877C20.1946 22.722 19.299 28.1785 19.0583 29.6515ZM17.6446 31.0627C17.1459 31.556 16.8518 31.8171 16.5193 31.9224C16.1914 32.0259 15.8396 32.0259 15.5118 31.9224C15.1224 31.7987 14.7856 31.4634 14.113 30.7906L6.5995 23.2854L8.562 20.245C8.57032 20.2297 8.58172 20.2164 8.5955 20.2057C8.61637 20.1907 8.6465 20.1975 8.6715 20.2057C9.12196 20.3415 9.60554 20.317 10.04 20.1365C10.0625 20.1282 10.0851 20.1224 10.1027 20.1382C10.1115 20.1462 10.1194 20.1551 10.1261 20.1649L17.6446 31.0627ZM5.87512 22.5617L4.1515 20.8401L7.55525 19.3896C7.56397 19.3858 7.57336 19.3838 7.58287 19.3837C7.61125 19.3837 7.628 19.4121 7.643 19.438C7.67725 19.4905 7.7135 19.5417 7.75175 19.5916L7.7625 19.6049C7.7725 19.6191 7.76588 19.6332 7.75588 19.6466L5.87512 22.5617ZM3.38875 20.0781L1.20812 17.8999C0.837125 17.5294 0.568125 17.2606 0.381 17.0295L7.01137 18.4032L7.03638 18.4074C7.07738 18.414 7.12262 18.4215 7.12262 18.4599C7.12262 18.5016 7.07325 18.5209 7.03137 18.5366L7.01225 18.545L3.38875 20.0781ZM0 15.9094C0.00758493 15.7691 0.0328686 15.6303 0.07525 15.4964C0.198875 15.1074 0.53475 14.7719 1.20812 14.0992L3.99863 11.3117C5.28348 13.1744 6.57181 15.0347 7.86363 16.8926C7.88613 16.9226 7.91113 16.956 7.88538 16.981C7.76338 17.1154 7.64138 17.2622 7.55538 17.4217C7.546 17.4421 7.53163 17.46 7.5135 17.4734C7.50263 17.4801 7.491 17.4776 7.4785 17.4751H7.47675L0 15.9094ZM4.74563 10.5656L8.49775 6.81762C8.85025 6.972 10.1336 7.51362 11.2815 7.99762C12.1505 8.365 12.9425 8.69887 13.1915 8.80725C13.2165 8.81725 13.2391 8.82725 13.25 8.85225C13.2566 8.86725 13.2534 8.8865 13.25 8.90237C13.1906 9.17296 13.1995 9.45407 13.2758 9.7204C13.352 9.98672 13.4934 10.2299 13.687 10.428C13.712 10.453 13.687 10.4889 13.6652 10.5197L13.6535 10.5372L9.84375 16.4319C9.83375 16.4486 9.8245 16.4627 9.80775 16.4736C9.78775 16.4861 9.75938 16.4802 9.73588 16.4745C9.5877 16.4357 9.43539 16.415 9.28225 16.4127C9.14525 16.4127 8.9965 16.4377 8.84612 16.4652C8.8295 16.4677 8.8135 16.4711 8.80025 16.4611C8.78548 16.4491 8.77278 16.4347 8.76262 16.4186L4.74563 10.5656ZM9.25562 6.06062L14.1131 1.2085C14.7856 0.536621 15.1224 0.200371 15.5116 0.0776212C15.8395 -0.0259449 16.1914 -0.0259449 16.5193 0.0776212C16.9086 0.200371 17.2453 0.536621 17.9179 1.2085L18.9706 2.26012L15.5159 7.60462C15.5073 7.62016 15.4957 7.63378 15.4816 7.64462C15.4607 7.65887 15.4315 7.653 15.4064 7.64462C15.134 7.56206 14.8456 7.54703 14.5661 7.60085C14.2867 7.65466 14.0245 7.77569 13.8022 7.9535C13.7797 7.97687 13.7462 7.9635 13.7179 7.951C13.2666 7.75487 9.75775 6.27337 9.25562 6.06062ZM19.7041 2.99287L22.8941 6.17912L22.1254 10.9346V10.9471C22.1247 10.958 22.1225 10.9687 22.1187 10.9789C22.1104 10.9955 22.0936 10.9989 22.0769 11.0039C21.9126 11.0536 21.7578 11.1306 21.6191 11.2317C21.6132 11.236 21.6075 11.2407 21.6024 11.2459C21.5931 11.2559 21.584 11.2651 21.569 11.2667C21.5567 11.2671 21.5445 11.2651 21.533 11.2609L16.6721 9.19787L16.663 9.19362C16.632 9.18112 16.5952 9.16612 16.5952 9.13437C16.5667 8.86376 16.4782 8.60291 16.3363 8.37075C16.3129 8.33237 16.287 8.29237 16.307 8.25312L19.7041 2.99287ZM16.419 10.175L20.9757 12.1029C21.0007 12.1145 21.0284 12.1254 21.0392 12.1512C21.0436 12.1668 21.0436 12.1832 21.0392 12.1987C21.0259 12.2656 21.0142 12.3415 21.0142 12.4184V12.546C21.0142 12.5777 20.9816 12.591 20.9515 12.6035L20.9424 12.6069C20.2205 12.9149 10.8079 16.9241 10.7936 16.9241C10.7795 16.9241 10.7644 16.9241 10.7502 16.91C10.7252 16.885 10.7502 16.85 10.7727 16.8181L10.7845 16.8015L14.5291 11.0096L14.5358 10.9996C14.5575 10.9645 14.5826 10.9252 14.6228 10.9252L14.6602 10.9311C14.7455 10.9427 14.8208 10.9536 14.8968 10.9536C15.4649 10.9536 15.9913 10.6774 16.3088 10.205C16.3163 10.1925 16.3259 10.1812 16.3371 10.1716C16.3596 10.155 16.3931 10.1634 16.419 10.175ZM11.2005 17.8405L21.4604 13.4699C21.4604 13.4699 21.4754 13.4699 21.4896 13.4841C21.5455 13.54 21.5931 13.5775 21.6391 13.6126L21.6616 13.6267C21.6826 13.6385 21.7035 13.6517 21.7051 13.6735C21.7051 13.6819 21.7051 13.6869 21.7035 13.6944L20.8245 19.0874L20.8211 19.1091C20.8154 19.1507 20.8095 19.1984 20.7703 19.1984C20.536 19.2141 20.3091 19.2867 20.1092 19.4099C19.9094 19.5331 19.7425 19.7031 19.6231 19.9052L19.6189 19.9119C19.6073 19.9311 19.5964 19.9494 19.5771 19.9594C19.5596 19.9679 19.5371 19.9645 19.5186 19.9604L11.3368 18.2745C11.3284 18.2729 11.2097 17.8414 11.2005 17.8405Z"
  />
  <defs>
    <radialGradient
      id="paint0_radial_11_316"
      cx="0"
      cy="0"
      r="1"
      gradientUnits="userSpaceOnUse"
      gradientTransform="translate(16 -16.0001) scale(32 32.0001)">
      <stop
        stop-color="#20C6B7"
      />
      <stop
        offset="1"
        stop-color="#4D9ABF"
      />
    </radialGradient>
  </defs>
</svg>

<svg xmlns="http://www.w3.org/2000/svg" width="32" height="32" fill="transparent" xmlns:v="https://vecta.io/nano">
  <path fill="url(#A)"
    d="M23.192 11.105l-.012-.005c-.007-.002-.014-.006-.019-.011-.01-.01-.017-.023-.021-.036s-.005-.028-.003-.041l.646-3.944 3.029 3.026-3.15 1.339a.07.07 0 0 1-.027.005h-.013c-.006-.004-.012-.009-.017-.014-.117-.13-.257-.238-.413-.318zm4.393-.24l3.238 3.235c.672.673 1.009 1.008 1.132 1.397.018.058.033.115.045.174l-7.739-3.274c-.043-.017-.079-.032-.079-.063s.037-.047.068-.059l.01-.004 3.325-1.405zm4.284 5.845c-.167.314-.493.639-1.044 1.191l-3.651 3.646-4.722-.982-.025-.005c-.042-.007-.086-.014-.086-.052-.018-.195-.076-.384-.17-.555s-.223-.321-.377-.441c-.019-.019-.014-.049-.008-.077l.89-5.458.003-.018c.005-.042.012-.09.05-.09.19-.024.374-.085.54-.18s.312-.223.429-.375c.008-.008.012-.018.022-.023.027-.012.059 0 .086.012l8.063 3.407zm-5.535 5.676l-6.004 5.997 1.027-6.309.002-.008c.001-.008.002-.016.005-.024.008-.02.03-.028.051-.037l.01-.004c.225-.096.424-.244.581-.431.02-.023.044-.046.075-.05.008-.001.016-.001.024 0l4.227.868.001-.001zm-7.275 7.267l-.677.676L10.9 19.527c-.02-.028-.033-.043-.03-.062.001-.013.009-.025.018-.035l.008-.011.063-.103.017-.029.002-.002c.012-.02.023-.039.043-.05s.042-.005.061-.001l8.289 1.707c.023.004.045.013.063.027.011.011.013.023.016.036a1.47 1.47 0 0 0 .315.591c.149.17.335.303.544.39.023.012.013.038.002.065a.2.2 0 0 0-.012.038l-1.241 7.564zm-1.414 1.411c-.499.493-.793.754-1.125.86s-.68.104-1.008 0c-.389-.124-.726-.459-1.399-1.132L6.6 23.285l1.962-3.04c.008-.015.02-.029.034-.039.021-.015.051-.008.076 0 .45.136.934.111 1.368-.069.023-.008.045-.014.063.002.009.008.017.017.023.027l7.519 10.898zM5.875 22.562L4.152 20.84l3.404-1.45c.009-.004.018-.006.028-.006.028 0 .045.028.06.054l.109.154.011.013c.01.014.003.028-.007.042l-1.881 2.915zm-2.486-2.484L1.208 17.9l-.827-.87 6.63 1.374.025.004c.041.007.086.014.086.053s-.049.061-.091.077l-.019.008-3.623 1.533zM0 15.909c.008-.14.033-.279.075-.413.124-.389.459-.724 1.133-1.397l2.791-2.787 3.865 5.581c.022.03.048.063.022.088-.122.134-.244.281-.33.441-.009.02-.024.038-.042.052-.011.007-.022.004-.035.002h-.002L0 15.909zm4.746-5.344l3.752-3.748 2.784 1.18 1.91.81c.025.01.048.02.059.045.007.015.003.034 0 .05a1.67 1.67 0 0 0 .437 1.526c.025.025 0 .061-.022.092l-.012.018-3.81 5.895c-.01.017-.019.031-.036.042s-.048.007-.072.001c-.148-.039-.3-.059-.454-.062-.137 0-.286.025-.436.052-.017.003-.033.006-.046-.004s-.027-.026-.038-.042l-4.017-5.853zm4.51-4.505l4.857-4.852C14.786.537 15.122.2 15.512.078c.328-.104.68-.104 1.008 0 .389.123.726.459 1.399 1.131l1.053 1.052-3.455 5.345c-.009.016-.02.029-.034.04-.021.014-.05.008-.075 0-.272-.083-.561-.098-.84-.044s-.542.175-.764.353c-.022.023-.056.01-.084-.003l-4.462-1.89zm10.448-3.068l3.19 3.186-.769 4.755v.013c-.001.011-.003.022-.007.032-.008.017-.025.02-.042.025a1.53 1.53 0 0 0-.458.228c-.006.004-.012.009-.017.014s-.018.019-.033.021-.024-.002-.036-.006l-4.861-2.063-.009-.004c-.031-.012-.068-.027-.068-.059a1.83 1.83 0 0 0-.259-.764c-.023-.038-.049-.078-.029-.118l3.397-5.26zm-3.285 7.182l4.557 1.928c.025.012.053.023.064.048.004.016.004.032 0 .048a1.14 1.14 0 0 0-.025.22v.128c0 .032-.033.045-.063.058l-.009.003-10.149 4.317c-.014 0-.029 0-.043-.014-.025-.025 0-.06.023-.092l.012-.017 3.745-5.792.007-.01c.022-.035.047-.074.087-.074l.037.006.237.022c.568 0 1.095-.276 1.412-.749.007-.012.017-.024.028-.033.023-.017.056-.008.082.003zm-5.219 7.665l10.26-4.371s.015 0 .029.014c.056.056.104.093.149.129l.023.014c.021.012.042.025.044.047 0 .008 0 .013-.002.021l-.879 5.393-.003.022c-.006.042-.012.089-.051.089-.234.016-.461.088-.661.212s-.367.293-.486.495l-.004.007c-.012.019-.023.038-.042.047s-.04.005-.059.001l-8.182-1.686c-.008-.002-.127-.433-.136-.434z" />
  <defs>
    <radialGradient id="A" cx="0" cy="0" r="1" gradientUnits="userSpaceOnUse"
      gradientTransform="translate(16 -16.0001) scale(32 32.0001)">
      <stop stop-color="#20c6b7" />
      <stop offset="1" stop-color="#4d9abf" />
    </radialGradient>
  </defs>
</svg>
